images/appstore.svg

<svg width="168" height="50" viewBox="0 0 168 50" fill="none" xmlns="http://www.w3.org/2000/svg">
<path d="M163.8 0H4.2C1.8804 0 0 1.86548 0 4.16667V45.8333C0 48.1345 1.8804 50 4.2 50H163.8C166.12 50 168 48.1345 168 45.8333V4.16667C168 1.86548 166.12 0 163.8 0Z" fill="#151515"/>
<path fill-rule="evenodd" clip-rule="evenodd" d="M35.3738 14.7584C38.9354 14.7584 41.2118 18.1889 41.2118 18.1889C41.2118 18.1889 37.7398 20.0667 37.7398 24.1417C37.7398 28.9792 42.1036 30.3875 42.1036 30.3875C42.1036 30.3875 38.6596 38.5209 34.79 38.5209C32.6144 38.5209 32.4688 37.275 29.5778 37.275C27.0662 37.275 26.2206 38.5195 24.3082 38.5195C20.657 38.5195 15.9418 30.5889 15.9418 24.1375C15.9418 17.4389 20.7158 14.7556 23.709 14.7556C26.3368 14.7556 27.433 16.2973 29.547 16.2973C31.3292 16.2973 32.732 14.7556 35.3738 14.7556V14.7584ZM34.7606 7.92505C35.2828 11.2112 32.291 15.2723 28.7126 15.1403C28.1876 10.9639 32.0446 8.15005 34.7578 7.92922L34.7606 7.92505Z" fill="white"/>
<mask id="mask0_9_606" style="mask-type:luminance" maskUnits="userSpaceOnUse" x="52" y="8" width="101" height="37">
<path d="M52.7296 8.12646H152.942V44.5098H52.7296V8.12785V8.12646Z" fill="white"/>
</mask>
<g mask="url(#mask0_9_606)">
<path fill-rule="evenodd" clip-rule="evenodd" d="M61.9612 32.6029L60.5472 28.2196C60.3974 27.7752 60.116 26.7196 59.7044 25.0599H59.654C59.486 25.7738 59.2228 26.8279 58.8588 28.2224L57.4686 32.6071H61.9626L61.9612 32.6029ZM66.8514 39.6029H63.9954L62.433 34.6724H56.9996L55.5086 39.6029H52.7296L58.1154 22.8154H61.4404L66.8514 39.6043V39.6029Z" fill="white"/>
</g>
<mask id="mask1_9_606" style="mask-type:luminance" maskUnits="userSpaceOnUse" x="52" y="8" width="101" height="37">
<path d="M52.7296 8.12646H152.942V44.5098H52.7296" fill="white"/>
</mask>
<g mask="url(#mask1_9_606)">
<path fill-rule="evenodd" clip-rule="evenodd" d="M77.9436 33.5001C77.9436 32.3223 77.6804 31.3501 77.1512 30.5862C76.5716 29.7904 75.7932 29.3917 74.8174 29.3917C74.1566 29.3917 73.5574 29.614 73.0184 30.0515C72.4793 30.4936 72.1076 31.1042 71.9642 31.7834C71.8802 32.1167 71.8382 32.3862 71.8382 32.6029V34.6223C71.8382 35.5029 72.1042 36.2473 72.6446 36.8542C73.1822 37.4598 73.8808 37.764 74.7404 37.764C75.7484 37.764 76.5352 37.3723 77.098 36.5945C77.6608 35.8126 77.9422 34.7834 77.9422 33.5042M80.6722 33.407C80.6722 35.4654 80.1164 37.0917 79.002 38.2876C78.0038 39.3487 76.762 39.8806 75.2836 39.8806C73.6876 39.8806 72.5396 39.3084 71.8396 38.1626V44.5154H69.1656V31.482C69.1656 30.1862 69.132 28.8598 69.0676 27.5001H71.4238L71.5736 29.4223H71.624C72.52 27.9751 73.8738 27.2515 75.6938 27.2515C77.1162 27.2515 78.3034 27.8167 79.254 28.9459C80.2032 30.0779 80.6792 31.564 80.6792 33.407" fill="white"/>
</g>
<mask id="mask2_9_606" style="mask-type:luminance" maskUnits="userSpaceOnUse" x="52" y="8" width="101" height="37">
<path d="M52.7296 8.12646H152.942V44.5098H52.7296" fill="white"/>
</mask>
<g mask="url(#mask2_9_606)">
<path fill-rule="evenodd" clip-rule="evenodd" d="M91.8176 33.5001C91.8176 32.3223 91.5516 31.3501 91.0196 30.5862C90.4414 29.7904 89.6658 29.3917 88.69 29.3917C88.0278 29.3917 87.43 29.614 86.8896 30.0515C86.3505 30.4933 85.9792 31.1042 85.8368 31.7834C85.7528 32.1167 85.7108 32.3862 85.7108 32.6029V34.6223C85.7108 35.5029 85.9796 36.2473 86.5158 36.8542C87.0534 37.4584 87.7534 37.764 88.6158 37.764C89.6238 37.764 90.412 37.3723 90.972 36.5945C91.532 35.8126 91.8162 34.7834 91.8162 33.5042M94.5462 33.407C94.5462 35.4654 93.9862 37.0917 92.8732 38.2876C91.8736 39.3487 90.6332 39.8806 89.1548 39.8806C87.5546 39.8806 86.4066 39.3084 85.7108 38.1626V44.5154H83.0284V31.482C83.0284 30.1862 82.9948 28.8598 82.9304 27.5001H85.2866L85.4364 29.4223H85.4868C86.38 27.9751 87.7366 27.2515 89.558 27.2515C90.979 27.2515 92.1676 27.8167 93.1196 28.9459C94.0674 30.0779 94.5462 31.564 94.5462 33.407Z" fill="white"/>
</g>
<path fill-rule="evenodd" clip-rule="evenodd" d="M110.06 34.8946C110.06 36.3251 109.56 37.4862 108.571 38.3834C107.482 39.3598 105.963 39.8501 104.014 39.8501C102.215 39.8501 100.772 39.5001 99.6828 38.8043L100.303 36.5612C101.479 37.2584 102.773 37.6071 104.177 37.6071C105.188 37.6071 105.973 37.3807 106.534 36.9237C107.099 36.4654 107.381 35.8571 107.381 35.0946C107.381 34.414 107.148 33.8418 106.686 33.3765C106.221 32.9126 105.454 32.4793 104.378 32.0821C101.447 30.9848 99.9824 29.3834 99.9824 27.2737C99.9824 25.8959 100.5 24.7696 101.532 23.8848C102.565 23.0071 103.936 22.5654 105.64 22.5654C107.166 22.5654 108.433 22.8321 109.441 23.3626L108.769 25.5571C107.82 25.0404 106.75 24.7834 105.554 24.7834C104.607 24.7834 103.865 25.0168 103.334 25.4821C102.889 25.8959 102.662 26.4015 102.662 27.0029C102.662 27.6654 102.92 28.2154 103.432 28.6459C103.88 29.0432 104.692 29.4765 105.864 29.9404C107.306 30.5237 108.363 31.2043 109.042 31.9821C109.724 32.7626 110.064 33.7348 110.064 34.8946M118.945 29.5196H115.991V35.3946C115.991 36.8918 116.512 37.6376 117.555 37.6376C118.035 37.6376 118.434 37.5959 118.745 37.5126L118.821 39.5543C118.294 39.7529 117.6 39.8529 116.739 39.8529C115.679 39.8529 114.853 39.5279 114.257 38.8807C113.66 38.2307 113.361 37.1446 113.361 35.6168V29.5098H111.602V27.4959H113.362V25.2793L115.994 24.4821V27.4959H118.948V29.5182L118.945 29.5196ZM129.468 33.5154C129.468 32.4071 129.23 31.4557 128.751 30.6598C128.188 29.6987 127.383 29.2182 126.343 29.2182C125.269 29.2182 124.445 29.6987 123.886 30.6598C123.404 31.4557 123.165 32.4237 123.165 33.5654C123.165 34.6765 123.403 35.6293 123.886 36.4237C124.466 37.3848 125.272 37.8654 126.322 37.8654C127.344 37.8654 128.146 37.3751 128.73 36.3987C129.22 35.5862 129.468 34.6265 129.468 33.5154ZM132.247 33.4543C132.247 35.3154 131.715 36.8432 130.656 38.0376C129.546 39.2668 128.075 39.8807 126.238 39.8807C124.466 39.8807 123.056 39.2904 122.004 38.114C120.957 36.9334 120.431 35.4473 120.431 33.6557C120.431 31.7807 120.974 30.2432 122.055 29.0487C123.14 27.8543 124.6 27.2543 126.437 27.2543C128.206 27.2543 129.629 27.8459 130.704 29.0223C131.733 30.1668 132.244 31.6432 132.244 33.4529M140.96 29.8668C140.682 29.8157 140.398 29.7906 140.115 29.7918C139.171 29.7918 138.443 30.1501 137.931 30.8668C137.483 31.4973 137.262 32.2946 137.262 33.2557V39.6098H134.582V31.314C134.582 29.9209 134.554 28.6473 134.504 27.5029H136.837L136.935 29.8196H137.01C137.294 29.0251 137.738 28.3834 138.349 27.9029C138.907 27.4831 139.587 27.2554 140.287 27.2543C140.532 27.2543 140.755 27.2709 140.953 27.3029L140.956 29.8696L140.96 29.8668ZM150.388 32.2834C150.408 31.4848 150.231 30.7973 149.87 30.214C149.404 29.4668 148.69 29.0932 147.734 29.0932C146.856 29.0932 146.143 29.4571 145.6 30.1904C145.155 30.7709 144.889 31.4682 144.808 32.2807L150.388 32.2834ZM152.944 32.9807C152.944 33.4626 152.912 33.8696 152.846 34.2029H144.808C144.836 35.3973 145.228 36.3112 145.972 36.9418C146.65 37.5029 147.526 37.7848 148.602 37.7848C149.792 37.7848 150.878 37.5973 151.855 37.2154L152.275 39.0807C151.134 39.5807 149.783 39.8307 148.232 39.8307C146.362 39.8307 144.893 39.2779 143.825 38.1751C142.761 37.0709 142.225 35.5862 142.225 33.7279C142.225 31.9043 142.72 30.3848 143.714 29.1723C144.756 27.8779 146.164 27.2307 147.932 27.2307C149.671 27.2307 150.987 27.8779 151.88 29.1723C152.587 30.1973 152.944 31.4682 152.944 32.9779V32.9807ZM58.2666 13.3668L57.5708 11.214C57.498 10.9918 57.3636 10.4779 57.1564 9.65844H57.1312C57.0472 10.0112 56.924 10.5265 56.7392 11.214L56.0574 13.3668H58.2666ZM60.6676 16.8043H59.2676L58.4976 14.3807H55.8264L55.0956 16.8057H53.7264L56.3724 8.55566H58.0076L60.6676 16.8043ZM67.2896 10.8571L65.0426 16.8043H63.7616L61.5916 10.8571H63.0056L64.0192 14.0029C64.19 14.5307 64.3356 15.0307 64.4448 15.5071H64.4826C64.5806 15.0793 64.7262 14.5765 64.9082 14.0029L65.9064 10.8557H67.2854L67.2896 10.8571ZM71.8816 13.8432C70.42 13.8432 69.6878 14.1987 69.6878 15.0418C69.6878 15.6668 70.0658 15.9723 70.5908 15.9723C71.2628 15.9723 71.883 15.4584 71.883 14.7612V13.8446L71.8816 13.8432ZM72.0678 16.8057L71.9698 16.1209H71.932C71.5302 16.6723 70.945 16.9404 70.2002 16.9404C69.1362 16.9404 68.3802 16.1946 68.3802 15.1904C68.3802 13.7209 69.6486 12.9626 71.8438 12.9626V12.8515C71.8438 12.0682 71.4294 11.6765 70.6118 11.6765C70.0628 11.6667 69.5234 11.8206 69.0634 12.1182L68.7946 11.2487C69.3448 10.9057 70.0266 10.7348 70.833 10.7348C72.3814 10.7348 73.1626 11.5543 73.1626 13.1959V15.3848C73.1626 15.9876 73.1878 16.4543 73.2466 16.8071H72.0636L72.0678 16.8057Z" fill="white"/>
<mask id="mask3_9_606" style="mask-type:luminance" maskUnits="userSpaceOnUse" x="52" y="8" width="101" height="37">
<path d="M52.7296 8.12646H152.942V44.5098H52.7296V8.12785V8.12646Z" fill="white"/>
</mask>
<g mask="url(#mask3_9_606)">
<path fill-rule="evenodd" clip-rule="evenodd" d="M76.7844 16.8071H75.4684V10.8571H76.7844V16.8071ZM76.1012 9.87656C75.9968 9.87679 75.8934 9.8562 75.7971 9.81602C75.7008 9.77585 75.6137 9.7169 75.5408 9.64267C75.468 9.56845 75.4109 9.48046 75.373 9.38392C75.335 9.28739 75.317 9.18429 75.32 9.08072C75.32 8.63072 75.6742 8.29878 76.1264 8.29878C76.5772 8.29878 76.9426 8.63211 76.93 9.0835C76.93 9.56128 76.5898 9.87934 76.1012 9.87934V9.87656ZM80.4412 16.8071H79.1252V8.12656H80.4412V16.8071ZM85.8592 13.8432C84.3934 13.8432 83.6612 14.1988 83.6612 15.0418C83.6612 15.6668 84.0392 15.9724 84.5642 15.9724C85.232 15.9724 85.855 15.4585 85.855 14.7613V13.8446L85.8592 13.8432ZM86.0412 16.8057L85.9432 16.121H85.9068C85.5036 16.6724 84.9184 16.9404 84.1736 16.9404C83.1138 16.9404 82.3564 16.1946 82.3564 15.1904C82.3564 13.721 83.6248 12.9627 85.8214 12.9627V12.8516C85.8214 12.0682 85.4056 11.6766 84.5894 11.6766C84.0014 11.6766 83.4904 11.8238 83.041 12.1182L82.775 11.2474C83.3238 10.9071 84.007 10.7335 84.812 10.7335C86.3604 10.7335 87.143 11.5529 87.143 13.1974V15.3849C87.143 15.9863 87.1668 16.4516 87.227 16.8057H86.0412ZM92.2096 11.7738C91.4508 11.7738 90.7564 12.4349 90.7564 13.3529V14.3946C90.7564 15.2141 91.3794 15.8877 92.1844 15.8877C93.1728 15.8877 93.7594 15.0793 93.7594 13.7946C93.7594 12.5946 93.1476 11.7738 92.2082 11.7738M92.4742 16.9404C91.6342 16.9404 91.0112 16.5849 90.608 15.8877H90.5828L90.5058 16.8043H89.3858C89.4194 16.3293 89.432 15.7904 89.432 15.2029V8.12378H90.7508V11.7238H90.7746C91.1638 11.0627 91.7966 10.7321 92.6646 10.7321C94.0926 10.7321 95.0922 11.9585 95.0922 13.746C95.0922 15.5932 93.982 16.9404 92.47 16.9404M98.364 16.8071H97.048V8.12656H98.364V16.8071ZM104.325 13.2071C104.325 12.2904 103.863 11.6404 103.02 11.6404C102.262 11.6404 101.668 12.3016 101.578 13.2071H104.325ZM105.533 14.1488H101.578C101.606 15.2766 102.348 15.9127 103.445 15.9127C104.033 15.9127 104.567 15.8127 105.041 15.6307L105.246 16.5474C104.686 16.7932 104.028 16.9154 103.258 16.9154C101.406 16.9154 100.309 15.7404 100.309 13.9154C100.309 12.0932 101.431 10.721 103.113 10.721C104.621 10.721 105.577 11.8488 105.577 13.5502C105.58 13.7793 105.567 13.9877 105.531 14.1474L105.533 14.1488ZM113.569 11.7002C112.617 11.7002 112.006 12.5932 112.006 13.8418C112.006 15.0641 112.631 15.9585 113.56 15.9585C114.484 15.9585 115.107 15.0029 115.107 13.8141C115.107 12.6057 114.496 11.6988 113.571 11.6988M113.518 16.9404C111.786 16.9404 110.662 15.6432 110.662 13.8807C110.662 12.0446 111.81 10.7335 113.618 10.7335C115.322 10.7335 116.472 11.9696 116.472 13.7863C116.472 15.6474 115.289 16.9432 113.518 16.9432M123.556 16.8085H122.24V13.3918C122.24 12.3404 121.836 11.8127 121.043 11.8127C120.263 11.8127 119.724 12.4863 119.724 13.271V16.8085H118.408V12.5585C118.408 12.0335 118.394 11.4696 118.359 10.8585H119.518L119.58 11.7752H119.616C119.966 11.1363 120.69 10.7335 121.492 10.7335C122.738 10.7335 123.554 11.6877 123.554 13.2418V16.8057L123.556 16.8085ZM132.173 11.8502H130.724V14.7391C130.724 15.4752 130.978 15.8418 131.489 15.8418C131.722 15.8418 131.918 15.8168 132.077 15.7807L132.112 16.7849C131.856 16.8821 131.513 16.9321 131.09 16.9321C130.05 16.9321 129.431 16.3571 129.431 14.8488V11.8488H128.568V10.8571H129.431V9.76684L130.724 9.37378V10.8571H132.173V11.8474V11.8502ZM139.149 16.8085H137.83V13.4196C137.83 12.3529 137.427 11.8141 136.634 11.8141C135.951 11.8141 135.318 12.2793 135.318 13.2224V16.8113H134V8.12656H135.318V11.7002H135.346C135.758 11.0516 136.354 10.7335 137.124 10.7335C138.382 10.7335 139.149 11.7154 139.149 13.2696V16.8085ZM144.672 13.2113C144.672 12.2946 144.21 11.6418 143.367 11.6418C142.611 11.6418 142.016 12.3043 141.929 13.2113H144.673H144.672ZM145.88 14.1516H141.926C141.952 15.2793 142.694 15.9154 143.791 15.9154C144.379 15.9154 144.914 15.8154 145.387 15.6335L145.594 16.5502C145.034 16.796 144.376 16.9182 143.606 16.9182C141.751 16.9182 140.655 15.7432 140.655 13.9182C140.655 12.096 141.775 10.7238 143.459 10.7238C144.971 10.7238 145.923 11.8516 145.923 13.5529C145.929 13.7821 145.916 13.9904 145.881 14.1502L145.88 14.1516Z" fill="white"/>
</g>
</svg>

<svg xmlns="http://www.w3.org/2000/svg" width="168" height="50" fill="none" viewBox="0 0 168 50"><defs><path id="a" fill="#fff" d="M52.73 8.126h100.212V44.51H52.73z"/><path id="c" fill="#fff" d="M52.73 8.126h100.212V44.51H52.73"/></defs><path fill="#151515" d="M163.8 0H4.2C1.88 0 0 1.865 0 4.167v41.666C0 48.135 1.88 50 4.2 50h159.6c2.32 0 4.2-1.865 4.2-4.167V4.167C168 1.865 166.12 0 163.8 0"/><path fill="#fff" fill-rule="evenodd" d="M35.374 14.758c3.561 0 5.838 3.43 5.838 3.43s-3.472 1.879-3.472 5.954c0 4.837 4.364 6.246 4.364 6.246S38.66 38.52 34.79 38.52c-2.176 0-2.321-1.246-5.212-1.246-2.512 0-3.357 1.245-5.27 1.245-3.651 0-8.366-7.931-8.366-14.383 0-6.698 4.774-9.381 7.767-9.381 2.628 0 3.724 1.541 5.838 1.541 1.782 0 3.185-1.541 5.827-1.541zm-.613-6.833c.522 3.286-2.47 7.347-6.048 7.215-.525-4.176 3.332-6.99 6.045-7.21z" clip-rule="evenodd"/><mask id="b" width="101" height="37" x="52" y="8" maskUnits="userSpaceOnUse" style="mask-type:luminance"><use href="#a"/></mask><g mask="url(#b)"><path fill="#fff" fill-rule="evenodd" d="m61.961 32.603-1.414-4.383q-.225-.669-.843-3.16h-.05q-.25 1.071-.795 3.162l-1.39 4.385h4.494zm4.89 7h-2.856l-1.562-4.93H57l-1.491 4.93h-2.78l5.386-16.788h3.325l5.411 16.79z" clip-rule="evenodd"/></g><mask id="d" width="101" height="37" x="52" y="8" maskUnits="userSpaceOnUse" style="mask-type:luminance"><use href="#c"/></mask><g mask="url(#d)"><path fill="#fff" fill-rule="evenodd" d="M77.944 33.5q0-1.767-.793-2.914-.87-1.194-2.334-1.194-.99.002-1.799.66a3.06 3.06 0 0 0-1.054 1.731 3.5 3.5 0 0 0-.126.82v2.02c0 .88.266 1.624.807 2.231q.806.91 2.095.91 1.513-.002 2.358-1.17.844-1.17.844-3.09m2.73-.097q0 3.087-1.67 4.88-1.499 1.594-3.718 1.594-2.394 0-3.444-1.718v6.352h-2.674V31.482q-.001-1.943-.098-3.982h2.356l.15 1.922h.05q1.342-2.17 4.07-2.17 2.134 0 3.56 1.694 1.425 1.697 1.425 4.461" clip-rule="evenodd"/></g><mask id="e" width="101" height="37" x="52" y="8" maskUnits="userSpaceOnUse" style="mask-type:luminance"><use href="#c"/></mask><g mask="url(#e)"><path fill="#fff" fill-rule="evenodd" d="M91.818 33.5q0-1.767-.798-2.914-.867-1.194-2.33-1.194-.992.002-1.8.66a3.05 3.05 0 0 0-1.053 1.731 3.5 3.5 0 0 0-.126.82v2.02q0 1.32.805 2.231.806.908 2.1.91c1.008 0 1.796-.392 2.356-1.17q.842-1.17.844-3.09m2.73-.097q-.002 3.087-1.673 4.88-1.5 1.594-3.718 1.594-2.4 0-3.444-1.718v6.352h-2.683V31.482q0-1.943-.098-3.982h2.357l.15 1.922h.05q1.34-2.17 4.071-2.17 2.133 0 3.562 1.694c.947 1.132 1.426 2.618 1.426 4.461" clip-rule="evenodd"/></g><path fill="#fff" fill-rule="evenodd" d="M110.06 34.895c0 1.43-.5 2.591-1.489 3.488q-1.633 1.466-4.557 1.467-2.698-.001-4.331-1.046l.62-2.243a7.46 7.46 0 0 0 3.874 1.046q1.516.001 2.357-.683.847-.687.847-1.83-.001-1.02-.695-1.718-.696-.697-2.308-1.294-4.396-1.645-4.396-4.808c0-1.378.518-2.504 1.55-3.39q1.55-1.317 4.108-1.319 2.289 0 3.801.798l-.672 2.194q-1.422-.775-3.215-.774-1.422 0-2.22.7a2 2 0 0 0-.672 1.52q.001.995.77 1.643.673.597 2.432 1.294 2.161.876 3.178 2.042 1.023 1.171 1.022 2.913m8.881-5.375h-2.954v5.875q0 2.244 1.564 2.243.722 0 1.19-.125l.076 2.041q-.79.299-2.082.299-1.589 0-2.482-.972-.896-.973-.896-3.264V29.51h-1.759v-2.014h1.76v-2.217l2.632-.797v3.014h2.954v2.022zm10.523 3.995q0-1.662-.717-2.855-.846-1.442-2.408-1.442c-1.074 0-1.898.48-2.457 1.442q-.722 1.194-.721 2.905-.002 1.666.721 2.859c.58.96 1.386 1.441 2.436 1.441q1.533-.001 2.408-1.466.737-1.219.738-2.884m2.779-.06q-.001 2.79-1.591 4.583-1.664 1.843-4.418 1.843-2.657 0-4.234-1.767-1.572-1.77-1.573-4.458.001-2.814 1.624-4.607 1.627-1.794 4.382-1.795 2.654.002 4.267 1.768 1.542 1.717 1.54 4.43m8.716-3.585a4.6 4.6 0 0 0-.845-.075q-1.416 0-2.184 1.075-.67.946-.669 2.389v6.354h-2.68v-8.296a88 88 0 0 0-.078-3.811h2.333l.098 2.317h.075c.284-.795.728-1.437 1.339-1.917a3.23 3.23 0 0 1 1.938-.649q.368 0 .666.049l.003 2.567zm9.428 2.416c.02-.798-.157-1.486-.518-2.069q-.7-1.12-2.136-1.12-1.318-.002-2.134 1.096-.669.871-.792 2.09zm2.556.698q0 .723-.098 1.222h-8.038c.028 1.194.42 2.108 1.164 2.739q1.017.842 2.63.843 1.786.002 3.253-.57l.42 1.866c-1.141.5-2.492.75-4.043.75q-2.805 0-4.407-1.656c-1.064-1.104-1.6-2.589-1.6-4.447q-.001-2.736 1.489-4.556 1.565-1.941 4.218-1.941 2.609 0 3.948 1.941 1.062 1.54 1.064 3.806zM58.267 13.367l-.696-2.153c-.073-.222-.207-.736-.415-1.556h-.025a52 52 0 0 1-.392 1.556l-.682 2.153zm2.4 3.437h-1.4l-.77-2.423h-2.67l-.731 2.425h-1.37l2.646-8.25h1.636zm6.623-5.947-2.247 5.947h-1.281l-2.17-5.947h1.414l1.013 3.146c.171.528.317 1.028.426 1.504h.038c.098-.428.243-.93.425-1.504l.998-3.147h1.38zm4.592 2.986c-1.462 0-2.194.356-2.194 1.199 0 .625.378.93.903.93.672 0 1.292-.514 1.292-1.21v-.917zm.186 2.963-.098-.685h-.038c-.402.551-.987.82-1.732.82-1.064 0-1.82-.746-1.82-1.75 0-1.47 1.269-2.228 3.464-2.228v-.111c0-.784-.415-1.175-1.232-1.175a2.76 2.76 0 0 0-1.549.441l-.268-.87c.55-.342 1.232-.513 2.038-.513 1.548 0 2.33.82 2.33 2.46v2.19c0 .603.025 1.07.084 1.422h-1.183z" clip-rule="evenodd"/><mask id="f" width="101" height="37" x="52" y="8" maskUnits="userSpaceOnUse" style="mask-type:luminance"><use href="#a"/></mask><g mask="url(#f)"><path fill="#fff" fill-rule="evenodd" d="M76.784 16.807h-1.316v-5.95h1.316zm-.683-6.93a.785.785 0 0 1-.728-.493.8.8 0 0 1-.053-.303c0-.45.354-.782.806-.782.451 0 .817.333.804.785 0 .477-.34.795-.829.795zm4.34 6.93h-1.316v-8.68h1.316zm5.418-2.964c-1.466 0-2.198.356-2.198 1.199 0 .625.378.93.903.93.668 0 1.291-.513 1.291-1.21v-.917zm.182 2.963-.098-.685h-.036c-.403.551-.989.82-1.733.82-1.06 0-1.818-.746-1.818-1.75 0-1.47 1.269-2.228 3.465-2.228v-.111c0-.784-.415-1.175-1.232-1.175-.588 0-1.099.147-1.548.441l-.266-.87c.549-.34 1.232-.514 2.037-.514 1.548 0 2.331.819 2.331 2.463v2.188c0 .601.024 1.067.084 1.42zm6.169-5.032c-.76 0-1.454.66-1.454 1.579v1.042c0 .82.623 1.493 1.428 1.493.989 0 1.575-.809 1.575-2.093 0-1.2-.611-2.021-1.55-2.021m.265 5.166c-.84 0-1.463-.355-1.866-1.052h-.025l-.077.916h-1.12c.033-.475.046-1.014.046-1.601v-7.08h1.319v3.6h.024c.389-.66 1.022-.99 1.89-.99 1.428 0 2.427 1.226 2.427 3.013 0 1.847-1.11 3.194-2.622 3.194m5.894-.133h-1.316v-8.68h1.316zm5.961-3.6c0-.917-.462-1.567-1.305-1.567-.758 0-1.352.662-1.442 1.567zm1.208.942h-3.955c.028 1.128.77 1.764 1.867 1.764.588 0 1.122-.1 1.596-.282l.205.916c-.56.246-1.218.368-1.988.368-1.852 0-2.949-1.175-2.949-3 0-1.822 1.122-3.194 2.804-3.194 1.508 0 2.464 1.128 2.464 2.83.003.228-.01.437-.046.596zm8.036-2.449c-.952 0-1.563.893-1.563 2.142 0 1.222.625 2.117 1.554 2.117.924 0 1.547-.956 1.547-2.145 0-1.208-.611-2.115-1.536-2.115m-.053 5.241c-1.732 0-2.856-1.297-2.856-3.06 0-1.835 1.148-3.147 2.956-3.147 1.704 0 2.854 1.237 2.854 3.053 0 1.861-1.183 3.157-2.954 3.157m10.038-.135h-1.316v-3.416c0-1.052-.404-1.58-1.197-1.58-.78 0-1.319.674-1.319 1.459v3.537h-1.316v-4.25q.002-.784-.049-1.7h1.159l.062.917h.036c.35-.639 1.074-1.042 1.876-1.042 1.246 0 2.062.955 2.062 2.509v3.564zm8.617-4.958h-1.449v2.89q0 1.102.765 1.102c.233 0 .429-.025.588-.061l.035 1.004q-.386.146-1.022.147c-1.04 0-1.659-.575-1.659-2.083v-3h-.863v-.992h.863v-1.09l1.293-.393v1.483h1.449zm6.976 4.958h-1.319V13.42c0-1.067-.403-1.606-1.196-1.606-.683 0-1.316.465-1.316 1.408v3.59H134V8.126h1.318V11.7h.028c.412-.648 1.008-.966 1.778-.966 1.258 0 2.025.981 2.025 2.536zm5.523-3.597c0-.916-.462-1.57-1.305-1.57-.756 0-1.351.663-1.438 1.57h2.744zm1.208.94h-3.954c.026 1.128.768 1.764 1.865 1.764.588 0 1.123-.1 1.596-.281l.207.916c-.56.246-1.218.368-1.988.368-1.855 0-2.951-1.175-2.951-3 0-1.822 1.12-3.194 2.804-3.194 1.512 0 2.464 1.128 2.464 2.829.006.23-.007.437-.042.597z" clip-rule="evenodd"/></g></svg>
